X: 1
T: Come West Along The Road
R: reel
M: 4/4
L: 1/8
K: Gmaj
|:d2BG dGBd|G2(3Bcd efge|d2BG dGBd|1 ABcd edBe:|2 ABcd edBd||
|g2bg egdg|egdg edBd|g2bg egdg|BABd edBd|
|g2bg egdg|egdg edBd|gabg efge|dega bage|


Tune 474	Setting 13360

